icons/diff-modified-24.svg

<svg width="24" height="24" viewBox="0 0 24 24">
  <path
    d="M2 3.75C2 2.7835 2.7835 2 3.75 2H20.25C21.2165 2 22 2.7835 22 3.75V20.25C22 21.2165 21.2165 22 20.25 22H3.75C2.7835 22 2 21.2165 2 20.25V3.75ZM3.75 3.5C3.61193 3.5 3.5 3.61193 3.5 3.75V20.25C3.5 20.3881 3.61193 20.5 3.75 20.5H20.25C20.3881 20.5 20.5 20.3881 20.5 20.25V3.75C20.5 3.61193 20.3881 3.5 20.25 3.5H3.75Z"
  />
  <path
    d="M14.5 12C14.5 13.3807 13.3807 14.5 12 14.5C10.6193 14.5 9.5 13.3807 9.5 12C9.5 10.6193 10.6193 9.5 12 9.5C13.3807 9.5 14.5 10.6193 14.5 12Z"
  />
</svg>

<svg xmlns="http://www.w3.org/2000/svg" width="24" height="24" viewBox="0 0 24 24"><path d="M2 3.75C2 2.784 2.784 2 3.75 2h16.5c.966 0 1.75.784 1.75 1.75v16.5A1.75 1.75 0 0 1 20.25 22H3.75A1.75 1.75 0 0 1 2 20.25V3.75Zm1.75-.25a.25.25 0 0 0-.25.25v16.5c0 .138.112.25.25.25h16.5a.25.25 0 0 0 .25-.25V3.75a.25.25 0 0 0-.25-.25H3.75Z"/><path d="M14.5 12a2.5 2.5 0 1 1-5 0 2.5 2.5 0 0 1 5 0Z"/></svg>
